X:25
T:Ronde de la dvote
A:FLANDRE
O:FRANCE
M:6/8
L:1/8
Q:1/4=180
K:D
AAA Bcd|A3D2D|G2G EFG|
A3 z2 A|A2Ac2d|A2GF2F|
G2GEFG|A3 z2 A|A3d3|
A3F2A|A3d2|A3F2 z|
GGG EFG|F2ED2F|
GGG EFG|F2ED2 z|||
